libs/icons/src/svg/flag.svg

<svg width="16" height="16" viewBox="0 0 16 16" fill="none" xmlns="http://www.w3.org/2000/svg">
<path fill-rule="evenodd" clip-rule="evenodd" d="M2.00002 0.666667C2.00002 0.298477 1.70154 0 1.33335 0C0.965164 0 0.666687 0.298477 0.666687 0.666667V15.3333C0.666687 15.7015 0.965164 16 1.33335 16C1.70154 16 2.00002 15.7015 2.00002 15.3333V10H10C10.3682 10 10.6667 9.70152 10.6667 9.33333V4.66667H13.7417L12.7009 7.78918C12.6553 7.92603 12.6553 8.07397 12.7009 8.21082L13.7417 11.3333H6.00002C5.63183 11.3333 5.33335 11.6318 5.33335 12C5.33335 12.3682 5.63183 12.6667 6.00002 12.6667H14.6667C14.881 12.6667 15.0822 12.5637 15.2075 12.3898C15.3328 12.216 15.3669 11.9925 15.2991 11.7892L14.0361 8L15.2991 4.21082C15.3669 4.00752 15.3328 3.78404 15.2075 3.61019C15.0822 3.43635 14.881 3.33333 14.6667 3.33333H10.6667V1.33333C10.6667 0.965144 10.3682 0.666667 10 0.666667H2.00002ZM2.00002 2V8.66667H9.33335V2H2.00002Z" fill="#202327"/>
</svg>

<svg xmlns="http://www.w3.org/2000/svg" viewBox="0 0 16 16" class="sageicon"><path fill-rule="evenodd" d="M2 .667a.667.667 0 0 0-1.333 0v14.666a.667.667 0 1 0 1.333 0V10h8a.667.667 0 0 0 .667-.667V4.667h3.075L12.7 7.789a.667.667 0 0 0 0 .422l1.04 3.122H6a.667.667 0 0 0 0 1.334h8.667a.666.666 0 0 0 .632-.878L14.036 8 15.3 4.21a.667.667 0 0 0-.632-.877h-4v-2A.667.667 0 0 0 10 .667H2ZM2 2v6.667h7.333V2H2Z"/></svg>
